app/dist/common/images/martin-marietta.svg

<svg height="18" width="18" xmlns="http://www.w3.org/2000/svg"><path d="m0 0h18v18h-18z" fill="#008acd"/><g fill="#fff"><path d="m9.008 7.53-1.445-2.529-4.563 7.997h1.625l2.94-5.154 1.445 2.536 1.437-2.533 2.926 5.151h1.627l-4.553-7.998z"/><path d="m14.995 13-3.075-5.464-.802 1.425-.626 1.113-.623-1.112-.798-1.423-.8 1.421-2.271 4.04h1.602l1.471-2.618 1.427 2.548 1.425-2.536 1.462 2.606z"/></g></svg>

<!-- by TradingView --><svg width="18" height="18" xmlns="http://www.w3.org/2000/svg"><path fill="#008ACD" d="M0 0h18v18H0z"/><path d="M9.008 7.53L7.563 5.001 3 12.998h1.625l2.94-5.154L9.01 10.38l1.437-2.533 2.926 5.151H15L10.447 5 9.008 7.53z" fill="#fff"/><path d="M14.995 13L11.92 7.536l-.802 1.425-.626 1.113-.623-1.112-.798-1.423-.8 1.421L6 13h1.602l1.471-2.618L10.5 12.93l1.425-2.536L13.387 13h1.608z" fill="#fff"/></svg>
